public/img/Arch.svg

<svg width="89" height="30" viewBox="0 0 89 30" fill="none" xmlns="http://www.w3.org/2000/svg">
<path d="M15.7861 0.725806C16.4547 2.31183 17.2771 4.25403 18.2533 6.55242C19.2429 8.85081 20.2592 11.2164 21.3022 13.6492C22.3587 16.082 23.375 18.4476 24.3511 20.746C25.3407 23.0444 26.1765 24.9798 26.8585 26.5524C27.059 27.0497 27.4535 27.5 28.0419 27.9032C28.3495 28.1048 28.6504 28.2729 28.9446 28.4073C29.2521 28.5417 29.4995 28.6694 29.6867 28.7903C29.8204 28.8844 29.9074 28.9785 29.9475 29.0726C29.9742 29.1263 29.9876 29.1801 29.9876 29.2339C29.9876 29.2742 29.9742 29.3212 29.9475 29.375C29.9074 29.4556 29.8271 29.496 29.7068 29.496H22.927C22.8066 29.496 22.6863 29.4556 22.5659 29.375C22.4322 29.2809 22.352 29.1801 22.3252 29.0726C22.2985 29.0323 22.2851 28.9919 22.2851 28.9516C22.2851 28.8306 22.3653 28.703 22.5258 28.5686C22.6462 28.4476 22.7933 28.3199 22.9671 28.1855C23.1409 28.0511 23.268 27.8696 23.3482 27.6411C23.3883 27.5336 23.4084 27.4126 23.4084 27.2782C23.4084 27.0497 23.3549 26.8011 23.2479 26.5323L20.2792 19.6371H8.58508C8.10367 20.793 7.62227 21.9489 7.14086 23.1048C6.67283 24.2473 6.19811 25.3898 5.7167 26.5323C5.59635 26.8011 5.52949 27.043 5.51611 27.2581C5.50274 27.3522 5.49606 27.4462 5.49606 27.5403C5.49606 27.6747 5.51611 27.8024 5.55623 27.9234C5.59635 28.0981 5.66321 28.246 5.75682 28.3669C5.85042 28.4745 5.91729 28.5887 5.9574 28.7097C5.97078 28.8172 5.97746 28.8911 5.97746 28.9315C5.97746 28.9718 5.96409 29.0188 5.93735 29.0726C5.84374 29.3548 5.69664 29.496 5.49606 29.496H0.320938C0.187214 29.496 0.0936068 29.4556 0.0401172 29.375C0.0401172 29.3616 0.0267448 29.328 0 29.2742C0 29.2473 0.0133724 29.1801 0.0401172 29.0726C0.120352 28.8979 0.347682 28.7231 0.722109 28.5484C0.922696 28.4543 1.13665 28.3535 1.36398 28.246C1.60469 28.125 1.84539 27.9839 2.08609 27.8226C2.58087 27.4731 2.94193 27.0497 3.16926 26.5524L14.5425 0.725806H15.7861ZM19.5772 18.004L14.3419 5.72581C13.4861 7.78226 12.6302 9.83199 11.7744 11.875C10.9319 13.918 10.0895 15.961 9.24701 18.004H19.5772Z" fill="black" fill-opacity="0.3"/>
<path d="M39.034 17.5V26.5524C39.034 27.4261 39.3617 27.9839 40.0169 28.2258C40.6855 28.4543 41.0198 28.7366 41.0198 29.0726C41.0198 29.3548 40.8861 29.496 40.6187 29.496H33.8188C33.538 29.496 33.3976 29.3548 33.3976 29.0726C33.3976 28.7366 33.7319 28.4543 34.4005 28.2258C35.0691 27.9839 35.4034 27.4261 35.4034 26.5524V13.6492C35.4034 12.8024 35.0691 12.2581 34.4005 12.0161C33.7319 11.7742 33.3976 11.4785 33.3976 11.129C33.3976 10.8468 33.538 10.7056 33.8188 10.7056C34.7014 10.6653 35.5706 10.5309 36.4264 10.3024C37.2956 10.0605 38.1648 9.79167 39.034 9.49597V12.1573L41.8222 11.0887C42.8518 10.6989 43.6542 10.4099 44.2292 10.2218C44.403 10.168 44.6103 10.1411 44.851 10.1411C45.3458 10.1411 45.9743 10.2755 46.7365 10.5444L46.2952 15.6048H45.3725C44.851 13.6425 43.8481 12.6613 42.3638 12.6613C42.2167 12.6613 42.0696 12.668 41.9225 12.6815C40.9062 12.8024 40.1774 13.3266 39.7361 14.254C39.3082 15.168 39.0741 16.25 39.034 17.5Z" fill="black" fill-opacity="0.3"/>
<path d="M58.7717 10.2218H59.1929C61.3726 10.2218 63.3785 10.8132 65.2105 11.996L64.8695 15.4032C64.8428 15.578 64.7558 15.6653 64.6087 15.6653H64.5486C64.4148 15.6519 64.2945 15.5175 64.1875 15.2621C63.6526 14.0927 62.9506 13.246 62.0814 12.7218C61.2255 12.211 60.1825 11.9556 58.9522 11.9556H58.4708C57.0132 12.0363 55.8833 12.4597 55.0809 13.2258C54.3722 13.9247 53.8507 14.7648 53.5163 15.746C53.1687 16.7272 52.9948 17.8226 52.9948 19.0323C52.9948 19.4355 53.0149 19.8454 53.055 20.2621C53.1887 22.2648 53.7303 23.9046 54.6797 25.1815C55.9234 26.8616 57.3141 27.8159 58.8519 28.0444C59.106 28.0847 59.3668 28.1048 59.6342 28.1048C60.8377 28.1048 62.1683 27.7016 63.6259 26.8952C64.3881 26.4785 64.9029 26.2702 65.1704 26.2702C65.2372 26.2702 65.2907 26.2836 65.3309 26.3105C65.3576 26.3374 65.371 26.3911 65.371 26.4718C65.371 26.6331 65.2907 26.8884 65.1303 27.2379C64.9297 27.6411 64.7023 27.957 64.4483 28.1855C63.686 28.871 62.75 29.3414 61.6401 29.5968C60.5302 29.8656 59.4737 30 58.4708 30C55.9835 29.9866 53.8908 29.2944 52.1925 27.9234C50.5075 26.539 49.5514 24.5632 49.3241 21.996C49.2706 21.4046 49.2439 20.8266 49.2439 20.2621C49.2439 19.5363 49.2907 18.8306 49.3843 18.1452C49.5581 16.9624 50.0128 15.7796 50.7483 14.5968C51.5238 13.3468 52.6003 12.3253 53.9777 11.5323C55.3684 10.7392 56.9664 10.3024 58.7717 10.2218Z" fill="black" fill-opacity="0.3"/>
<path d="M73.4746 26.5524C73.4746 27.4261 73.809 27.9839 74.4776 28.2258C75.1462 28.4543 75.4805 28.7366 75.4805 29.0726C75.4805 29.3548 75.3468 29.496 75.0793 29.496H68.2795C67.9986 29.496 67.8582 29.3548 67.8582 29.0726C67.8582 28.7366 68.1926 28.4543 68.8612 28.2258C69.5298 27.9839 69.8641 27.4261 69.8641 26.5524V4.15323C69.8641 3.29301 69.5298 2.74194 68.8612 2.5C68.1926 2.25806 67.8582 1.96237 67.8582 1.6129C67.8582 1.33065 67.9986 1.18952 68.2795 1.18952C69.162 1.14919 70.0312 1.01479 70.8871 0.78629C71.7563 0.557796 72.6188 0.295699 73.4746 0V12.2984C74.2101 12.0161 74.8587 11.7675 75.4203 11.5524C75.982 11.3374 76.5169 11.1425 77.025 10.9677C78.2553 10.5376 79.5323 10.2554 80.8562 10.121C81.0167 10.1075 81.1838 10.1008 81.3577 10.1008C82.4809 10.1008 83.5507 10.4839 84.567 11.25C86.1851 12.5 86.9941 15.1815 86.9941 19.2944V26.5524C86.9941 27.4261 87.3284 27.9839 87.9971 28.2258C88.6657 28.4543 89 28.7366 89 29.0726C89 29.3548 88.8663 29.496 88.5988 29.496H83.7246C83.4973 29.496 83.3836 29.4086 83.3836 29.2339V19.2944C83.3836 16.3508 82.7751 14.2809 81.5583 13.0847C80.7827 12.3185 79.8332 11.9355 78.7099 11.9355C78.0681 11.9355 77.366 12.0632 76.6038 12.3185C76.3096 12.4261 75.9352 12.5672 75.4805 12.7419C75.0392 12.9032 74.6581 13.0444 74.3372 13.1653C74.0162 13.2863 73.7287 13.3938 73.4746 13.4879V26.5524Z" fill="black" fill-opacity="0.3"/>
</svg>

<svg width="89" height="30" fill="none" xmlns="http://www.w3.org/2000/svg"><path d="M15.786.726a2609.39 2609.39 0 002.467 5.826c.99 2.299 2.006 4.664 3.05 7.097a954.984 954.984 0 013.048 7.097c.99 2.298 1.826 4.234 2.508 5.806.2.498.594.948 1.183 1.351.307.202.608.37.903.504.307.135.555.262.742.383.133.094.22.189.26.283a.36.36 0 01.04.16.324.324 0 01-.04.142c-.04.08-.12.121-.24.121h-6.78c-.12 0-.24-.04-.361-.121-.134-.094-.214-.195-.24-.302a.218.218 0 01-.04-.121c0-.121.08-.249.24-.383a4.56 4.56 0 01.441-.383 1.15 1.15 0 00.381-.545c.04-.107.06-.228.06-.363a2.03 2.03 0 00-.16-.746l-2.969-6.895H8.585l-1.444 3.468a371.648 371.648 0 01-1.424 3.427c-.12.27-.188.511-.2.726a1.91 1.91 0 00-.02.282c0 .135.02.262.06.383.04.175.106.323.2.444.093.107.16.222.2.343.014.107.02.181.02.221 0 .04-.013.088-.04.142-.093.282-.24.423-.44.423H.32c-.134 0-.227-.04-.28-.121a.356.356 0 00-.041-.1c0-.028.013-.095.04-.202.08-.175.308-.35.682-.525.2-.094.415-.194.642-.302.24-.121.481-.262.722-.423.495-.35.856-.773 1.083-1.27L14.542.725h1.244zm3.791 17.278L14.342 5.726c-.856 2.056-1.712 4.106-2.568 6.149l-2.527 6.129h10.33zm19.457-.504v9.052c0 .874.328 1.432.983 1.674.668.228 1.003.51 1.003.847 0 .282-.134.423-.401.423h-6.8c-.281 0-.421-.141-.421-.423 0-.336.334-.619 1.002-.847.67-.242 1.003-.8 1.003-1.674V13.65c0-.847-.334-1.39-1.002-1.633-.67-.242-1.003-.537-1.003-.887 0-.282.14-.423.42-.423.883-.04 1.753-.175 2.608-.404.87-.242 1.739-.51 2.608-.806v2.661l2.788-1.068c1.03-.39 1.832-.68 2.407-.867.174-.054.381-.08.622-.08.495 0 1.123.133 1.886.402l-.442 5.06h-.922c-.522-1.961-1.525-2.943-3.01-2.943a5 5 0 00-.44.02c-1.017.121-1.746.646-2.187 1.573-.428.914-.662 1.996-.702 3.246zm19.738-7.278h.42c2.18 0 4.187.591 6.018 1.774l-.34 3.407c-.027.175-.114.262-.261.262h-.06c-.134-.013-.255-.147-.362-.403-.534-1.17-1.236-2.016-2.106-2.54-.856-.511-1.899-.766-3.129-.766h-.481c-1.458.08-2.588.504-3.39 1.27a6.369 6.369 0 00-1.565 2.52c-.347.981-.521 2.077-.521 3.286 0 .404.02.813.06 1.23.134 2.003.675 3.643 1.625 4.92 1.243 1.68 2.634 2.634 4.172 2.862.254.04.515.06.782.06 1.204 0 2.534-.402 3.992-1.209.762-.416 1.277-.625 1.544-.625a.29.29 0 01.16.04c.028.027.041.081.041.162 0 .161-.08.416-.24.766-.201.403-.429.719-.683.948-.762.685-1.698 1.155-2.808 1.41-1.11.27-2.166.404-3.17.404-2.486-.013-4.58-.706-6.277-2.077-1.685-1.384-2.642-3.36-2.869-5.927-.053-.591-.08-1.17-.08-1.734 0-.726.047-1.431.14-2.117.174-1.183.629-2.365 1.364-3.548.776-1.25 1.852-2.272 3.23-3.065 1.39-.793 2.988-1.23 4.794-1.31zm14.703 16.33c0 .874.334 1.432 1.003 1.674.668.228 1.003.51 1.003.847 0 .282-.134.423-.402.423h-6.8c-.28 0-.42-.141-.42-.423 0-.336.334-.619 1.002-.847.669-.242 1.003-.8 1.003-1.674V4.153c0-.86-.334-1.411-1.003-1.653-.668-.242-1.003-.538-1.003-.887 0-.282.14-.423.421-.423.883-.04 1.752-.175 2.608-.404.87-.228 1.732-.49 2.588-.786v12.298l1.945-.746a50.03 50.03 0 011.605-.584c1.23-.43 2.507-.713 3.831-.847.16-.014.328-.02.502-.02 1.123 0 2.193.383 3.209 1.149 1.618 1.25 2.427 3.931 2.427 8.044v7.258c0 .874.334 1.432 1.003 1.674.669.228 1.003.51 1.003.847 0 .282-.134.423-.401.423h-4.874c-.228 0-.341-.087-.341-.262v-9.94c0-2.943-.609-5.013-1.826-6.21-.775-.765-1.725-1.149-2.848-1.149-.642 0-1.344.128-2.106.383-.294.108-.669.25-1.123.424-.442.161-.823.302-1.144.423-.32.121-.608.229-.862.323v13.064z" fill="#000" fill-opacity=".3"/></svg>
